app/client/src/assets/icons/blueprintjs/16px/office.svg

<svg xmlns="http://www.w3.org/2000/svg" xml:space="preserve" viewBox="0 0 16 16"><path fill-rule="evenodd" d="M15 5h-3V1c0-.55-.45-1-1-1H1C.45 0 0 .45 0 1v14c0 .55.45 1 1 1h3v-4h4v4h7c.55 0 1-.45 1-1V6c0-.55-.45-1-1-1zM5 10H2V7h3v3zm0-5H2V2h3v3zm5 5H7V7h3v3zm0-5H7V2h3v3zm4 9h-2v-2h2v2zm0-4h-2V7h2v3z" clip-rule="evenodd"/></svg>

<?xml version="1.0" encoding="utf-8"?>
<!-- Generator: Adobe Illustrator 18.1.0, SVG Export Plug-In . SVG Version: 6.00 Build 0)  -->
<svg version="1.1" id="Layer_1" xmlns="http://www.w3.org/2000/svg" xmlns:xlink="http://www.w3.org/1999/xlink" x="0px" y="0px"
	 viewBox="0 0 16 16" enable-background="new 0 0 16 16" xml:space="preserve">
<g id="office_1_">
	<g>
		<path fill-rule="evenodd" clip-rule="evenodd" d="M15,5h-3V1c0-0.55-0.45-1-1-1H1C0.45,0,0,0.45,0,1v14c0,0.55,0.45,1,1,1h3v-4h4
			v4h7c0.55,0,1-0.45,1-1V6C16,5.45,15.55,5,15,5z M5,10H2V7h3V10z M5,5H2V2h3V5z M10,10H7V7h3V10z M10,5H7V2h3V5z M14,14h-2v-2h2
			V14z M14,10h-2V7h2V10z"/>
	</g>
</g>
</svg>
